X: 08
T: NONESUCH or A LA MODE DE FRANCE
B: "FIFTY OLD ENGLISH FOLK DANCE AIRS", Edgar H. Hunt ed., Schott & Co. Ltd. pub., London 1939
Z: 2004-2014 John Chambers <jc:trillian.mit.edu>
M: 2/2
L: 1/4
K: Dm
a |\
(af) ga | (fe/f/) da |\
(af) ga | f2 fa |\
(af) ga | (fe/f/) da |
(af) ga | f2 d  |: e |\
ec de | (fe/f/) de |\
ec de | f2 d :|

%%sep 1 1 500
%%sep 1 1 500
